X: 1139
T: Terry Hiegh Ho the Grinder - 1st Setting   #2
R: slip jig
%S: s:2 b:9(4+5)
B: O'Neill's 1850 "Music of Ireland" #1139
Z: Stephen Foy (shf@access.digex.net)
%: abc 1.6
M: 9/8
L: 1/8
K: G
"^A"|: ABA A2B G3 |[1,3 ABA A2B d2B :|[2,4 GAG GAB d2B "^B":: gfg edc BAG |
[1 gfg efg a2f :|[2 ABA A2B d2B :|[3 gfg efg a2a ||[4 bag agf edB | ABA A2B d2B |]
